!!!!SEGMENT: pl-wtm--r-1226--016_lodwigowski-edward-stefan--hej-rozyno-hej-dziewczyno.krn
!!!cenid: 18xx:1932
!!!COM: Łodwigowski, Edward Stefan
!!!COM-rismid: pe30111147
!!!CDT: 1815/08/14-1895/11/12
!!!CNT: Polish
!!!OTL: Hej Różyno, hej dziewczyno
!!!PDT:
!!!AGN:
!!!SMS-siglum: PL-Wtm
!!!SMS-shelfmark: R 1226
!!!SMS-shelfwork: 016 W
!!!SMS-variant:
!!!SMS-altvar:
!!!NIFC-rismid: 1001084004
!!!URL-scan: http://repozytorium.nifc.pl/skany/pl-wtm-nut--r1226-1227
!!!ONB-nifc: UWAGA: No. 64
!!!OMD: Allegro.
**kern	**kern	**fing	**dynam
*part1	*part1	*part1	*part1
*staff2	*staff1	*staff1	*
*I"Fortepian	*I"Fortepian	*	*
*>[A,B,B]	*>[A,B,B]	*>[A,B,B]	*>[A,B,B]
*>A	*>A	*>A	*>A
*clefG2	*clefG2	*	*
*k[b-e-]	*k[b-e-]	*	*
*B-:	*B-:	*	*
*M3/8	*M3/8	*	*
*all\right	*all\right	*	*
=1	=1	=1	=1
!	!LO:TX:i:a:t=Hej! Różyno, hej! dziewczyno. P. L. P.	!	!
!	!LO:TX:Bi:a:t=No 64.	!	!
8fL 8d 8B-'/	(16b-\LL	2	mf
.	16cc\JJ	3	.
8f 8d 8B-'/	8dd\L	1	.
8fJ 8d 8B-'/	8ee-\J)	.	.
=2	=2	=2	=2
8fL 8d 8B-'/	(16ff\LL	.	.
.	16een\JJ	.	.
8f 8d 8B-'/	8gg\L)	.	.
8fJ 8d 8B-'/	8ff\J	1	.
=3	=3	=3	=3
8enL 8c#X 8B-'/	16gg\LL	2	sf
.	(16bb-\JJ	.	.
8e 8c# 8B-'/	8aa\L	.	.
8eJ 8c# 8B-'/	8gg\J)	.	.
=4	=4	=4	=4
8fL 8d 8B-'/	(16ff\LL	.	.
.	16een\JJ	2	.
8f 8d 8B-'/	8gg\L	4	.
8fJ 8d 8B-'/	8ff\J)	1	.
!!LO:LB:g=original
=5	=5	=5	=5
8enL 8c#X 8B-/	(16gg\LL	2	sf
.	16bb-\JJ	.	.
8e 8c# 8B-/	8aa\L	.	.
8eJ 8c# 8B-/	8gg\J)	.	.
=6	=6	=6	=6
8fL 8d 8B-/	(16ff\LL	.	.
.	16een\JJ	2	.
8f 8d 8B-/	8gg\L	4	.
8fJ 8d 8B-/	8ff\J)	3	.
*clefF4	*	*	*
=7!|:	=7!|:	=7!|:	=7!|:
*>B	*>B	*>B	*>B
*^	*	*	*
!	!	!	!	!LO:DY:b=2
8e-L 8A/	4.F\	(16cc\LL	1	sf
.	.	16ee-\JJ	4	.
8d 8B-/	.	8.dd\L	3	.
8dJ 8B-/	.	.	.	.
.	.	16b-\Jk	2	.
=8	=8	=8	=8	=8
!	!	!	!	!LO:DY:b=2
8e-L 8c/	4.F\	16a\LL	.	sf
.	.	16cc\JJ	.	.
8d 8B-/	.	8b-\L	.	.
8dJ 8B-/	.	8dd\J)	.	.
=9	=9	=9	=9	=9
!	!	!	!	!LO:DY:b=2
8e-L 8A/	4.F\	(16cc\LL	1	sf
.	.	16ee-\JJ	4	.
8d 8B-/	.	8.dd\L	.	.
8dJ 8B-/	.	.	.	.
.	.	16b-\Jk	.	.
=10	=10	=10	=10	=10
8e-L 8c/	8F\L	16a\LL	.	.
.	.	16cc\JJ	.	.
8d/	8B-\	8b-'\L	.	.
8d/J	8B-\J	8b-'\J)	.	.
*v	*v	*	*	*
=:|!	=:|!	=:|!	=:|!
*-	*-	*-	*-
!!!system-decoration: {p1}
!!!RDF**kern: > = above
!!!RDF**kern: < = below
!!!RDF**kern: | = vertical stroke
!!!ENC: Andrzej Kubiczek
!!!END: 2021-05-02
!!!ENC: Marcin Jachim
!!!END: 2021-04-17
